curriculum/images/exercise-icons/boundaried-ball.svg

<svg width="82" height="82" viewBox="0 0 82 82" fill="none" xmlns="http://www.w3.org/2000/svg">
<path d="M1 41C1 51.6087 5.21427 61.7828 12.7157 69.2843C20.2172 76.7857 30.3913 81 41 81C51.6087 81 61.7828 76.7857 69.2843 69.2843C76.7857 61.7828 81 51.6087 81 41C81 30.3913 76.7857 20.2172 69.2843 12.7157C61.7828 5.21427 51.6087 1 41 1C30.3913 1 20.2172 5.21427 12.7157 12.7157C5.21427 20.2172 1 30.3913 1 41Z" fill="#DAEDF7" stroke="#DAEDF7"/>
<path opacity="0.15" d="M61.05 71.8031C61.05 70.4228 52.3199 69.3031 41.5508 69.3031C30.7816 69.3031 22.05 70.4242 22.05 71.8031C22.05 73.182 30.7816 74.3031 41.5508 74.3031C52.3199 74.3031 61.05 73.1886 61.05 71.8031Z" fill="#45413C"/>
<path d="M10.05 40.3031C10.05 48.5248 13.3161 56.4098 19.1297 62.2234C24.9434 68.037 32.8283 71.3031 41.05 71.3031C49.2718 71.3031 57.1567 68.037 62.9704 62.2234C68.784 56.4098 72.05 48.5248 72.05 40.3031C72.05 32.0814 68.784 24.1964 62.9704 18.3828C57.1567 12.5692 49.2718 9.3031 41.05 9.3031C32.8283 9.3031 24.9434 12.5692 19.1297 18.3828C13.3161 24.1964 10.05 32.0814 10.05 40.3031Z" fill="#FFE500"/>
<path d="M71.797 44.3031C70.8851 36.7878 67.2541 29.8665 61.5895 24.8462C55.9248 19.8259 48.6187 17.0541 41.0508 17.0541C33.4828 17.0541 26.1767 19.8259 20.5121 24.8462C14.8474 29.8665 11.2164 36.7878 10.3045 44.3031C10.135 42.9799 10.05 41.6473 10.05 40.3133C10.05 32.0889 13.3161 24.2013 19.1297 18.3858C24.9434 12.5702 32.8283 9.3031 41.05 9.3031C49.2718 9.3031 57.1567 12.5702 62.9704 18.3858C68.784 24.2013 72.05 32.0889 72.05 40.3133C72.0503 41.6472 71.9658 42.9799 71.797 44.3031Z" fill="#FFF48C"/>
<path d="M10.05 40.3031C10.05 48.5248 13.3161 56.4098 19.1297 62.2234C24.9434 68.037 32.8283 71.3031 41.05 71.3031C49.2718 71.3031 57.1567 68.037 62.9704 62.2234C68.784 56.4098 72.05 48.5248 72.05 40.3031C72.05 32.0814 68.784 24.1964 62.9704 18.3828C57.1567 12.5692 49.2718 9.3031 41.05 9.3031C32.8283 9.3031 24.9434 12.5692 19.1297 18.3828C13.3161 24.1964 10.05 32.0814 10.05 40.3031Z" stroke="#45413C" stroke-linecap="round" stroke-linejoin="round"/>
</svg>

<svg xmlns="http://www.w3.org/2000/svg" width="82" height="82" fill="none" viewBox="0 0 82 82"><path fill="#daedf7" stroke="#daedf7" d="M1 41a40 40 0 1 0 80 0 40 40 0 0 0-80 0Z"/><path fill="#45413c" d="M61.05 71.803c0-1.38-8.73-2.5-19.5-2.5-10.768 0-19.5 1.121-19.5 2.5s8.732 2.5 19.5 2.5c10.77 0 19.5-1.114 19.5-2.5" opacity=".15"/><path fill="#ffe500" d="M10.05 40.303a31 31 0 1 0 62 0 31 31 0 0 0-62 0"/><path fill="#fff48c" d="M71.797 44.303A31 31 0 0 0 61.59 24.846a30.966 30.966 0 0 0-41.078 0 30.99 30.99 0 0 0-10.207 19.457 31 31 0 0 1-.255-3.99 31.02 31.02 0 0 1 9.08-21.927 30.995 30.995 0 0 1 43.84 0 31.02 31.02 0 0 1 9.08 21.927c0 1.334-.084 2.667-.253 3.99"/><path stroke="#45413c" stroke-linecap="round" stroke-linejoin="round" d="M10.05 40.303a31 31 0 1 0 62 0 31 31 0 0 0-62 0"/></svg>
